dist/img/content/how-it-works/01.svg

<svg width="30" height="45" viewBox="0 0 30 45" fill="none" xmlns="http://www.w3.org/2000/svg">
<path d="M16.4736 33.0469V2.10938H8.03613L1.00488 9.14062L4.52051 13.3594L9.44238 8.4375V33.0469H2.41113V40.0781H23.5049V33.0469H16.4736Z" fill="#FFB07B"/>
<path d="M2.41113 40.0781L5.22363 42.8906H26.3174L23.5049 40.0781H2.41113Z" fill="#9E734C"/>
<path d="M23.5049 33.0469L26.3174 35.8594V42.8906L23.5049 40.0781V33.0469ZM4.52051 13.3594L6.62988 15.4688L9.44238 12.6562V8.4375L4.52051 13.3594ZM16.4736 2.10938L19.2861 4.92188V33.0469H16.4736V2.10938Z" fill="#C09267"/>
<path d="M6.13256 15.9659C6.26442 16.0977 6.44323 16.1717 6.62967 16.1717C6.81611 16.1717 6.99493 16.0977 7.12678 15.9659L8.73905 14.3536V32.3438H2.41092C2.22444 32.3438 2.0456 32.4178 1.91374 32.5497C1.78188 32.6816 1.7078 32.8604 1.7078 33.0469V40.0781C1.71734 40.1556 1.73286 40.2322 1.7542 40.3073C1.7957 40.4025 1.8491 40.4921 1.91311 40.5738L4.72561 43.3863C4.79085 43.452 4.86841 43.5041 4.95384 43.5397C5.03926 43.5753 5.13088 43.5936 5.22342 43.5938H26.3172C26.5037 43.5938 26.6825 43.5197 26.8144 43.3878C26.9462 43.2559 27.0203 43.0771 27.0203 42.8906V35.8594C27.0203 35.6729 26.9462 35.4941 26.8143 35.3623L24.0018 32.5498C23.8699 32.4179 23.6911 32.3438 23.5047 32.3438H19.989V4.92188C19.989 4.73541 19.9149 4.5566 19.783 4.42477L16.9705 1.61227C16.8387 1.48039 16.6599 1.40629 16.4734 1.40625H8.03592C7.84946 1.40629 7.67064 1.48039 7.53881 1.61227L0.507562 8.64352C0.383561 8.76758 0.310414 8.93352 0.302478 9.10875C0.294543 9.28399 0.352393 9.45586 0.464671 9.59062L6.13256 15.9659ZM6.62967 14.4745L5.51451 13.3594L8.73905 10.1348V12.3652L6.62967 14.4745ZM24.2078 34.7442L25.614 36.1505V41.1933L24.2078 39.787V34.7442ZM24.6198 42.1875H5.51451L4.10826 40.7812H23.2136L24.6198 42.1875ZM17.1765 3.80672L18.5828 5.21297V32.3438H17.1765V3.80672ZM8.32701 2.8125H15.7703V33.0469C15.7703 33.2334 15.8444 33.4122 15.9762 33.5441C16.1081 33.6759 16.2869 33.75 16.4734 33.75H22.8015V39.375H3.11405V33.75H9.44217C9.62865 33.75 9.80749 33.6759 9.93936 33.5441C10.0712 33.4122 10.1453 33.2334 10.1453 33.0469V8.4375C10.1453 8.29846 10.104 8.16254 10.0268 8.04694C9.94949 7.93134 9.83969 7.84124 9.71122 7.78804C9.58276 7.73483 9.44141 7.72091 9.30504 7.74803C9.16867 7.77515 9.04339 7.84209 8.94506 7.94039L4.56741 12.318L1.956 9.18422L8.32701 2.8125Z" fill="#222831"/>
</svg>

<svg width="30" height="45" fill="none" xmlns="http://www.w3.org/2000/svg"><path d="M16.474 33.047V2.109H8.036L1.005 9.141l3.516 4.218 4.921-4.921v24.609h-7.03v7.031h21.093v-7.031h-7.031z" fill="#FFB07B"/><path d="M2.411 40.078l2.813 2.813h21.093l-2.812-2.813H2.41z" fill="#9E734C"/><path d="M23.505 33.047l2.812 2.812v7.032l-2.812-2.813v-7.031zM4.52 13.359l2.109 2.11 2.812-2.813V8.437l-4.92 4.923zM16.474 2.11l2.812 2.813v28.125h-2.812V2.109z" fill="#C09267"/><path d="M6.133 15.966a.703.703 0 00.994 0l1.612-1.612v17.99H2.411a.703.703 0 00-.703.703v7.031c.01.078.025.154.046.23.042.095.095.184.16.266l2.812 2.812a.702.702 0 00.497.208h21.094a.703.703 0 00.703-.703v-7.032a.703.703 0 00-.206-.497l-2.812-2.812a.703.703 0 00-.497-.206h-3.516V4.922a.703.703 0 00-.206-.497L16.97 1.612a.703.703 0 00-.497-.206H8.036a.703.703 0 00-.497.206L.508 8.644a.703.703 0 00-.043.947l5.668 6.375zm.497-1.491l-1.115-1.116 3.224-3.224v2.23l-2.11 2.11zm17.578 20.27l1.406 1.406v5.042l-1.406-1.406v-5.043zm.412 7.443H5.515L4.108 40.78h19.106l1.406 1.407zM17.176 3.806l1.407 1.406v27.13h-1.406V3.808zm-8.849-.994h7.443v30.234a.703.703 0 00.703.703h6.329v5.625H3.114V33.75h6.328a.703.703 0 00.703-.703V8.437a.703.703 0 00-1.2-.497l-4.378 4.378-2.611-3.134 6.371-6.371z" fill="#222831"/></svg>
